X:1
T:Hor che fra bianche perle
T:Tiburtio Massaino
T:Hor che fra bianche perle
C:Tiburtio Massaino
%%score [ 1 2 3 4 ]
L:1/8
Q:1/4=104
M:4/2
K:F
V:1 alto1 nm="Soprano" snm="S"
V:2 alto2 nm="Alto" snm="A"
V:3 alto nm="Tenor" snm="T"
V:4 bass3 nm="Bass" snm="B"
V:1
 z16 |[K:Eb][K:treble] E4 B8 F4 | G6 G2 A4 G2 E2 | E3 F G4 G4 z4 | B4 B3 A G4 F4 | z4 B4 G6 A2 | %6
w: |Hor che fra|bian- che per- le e|bei ru- bi- ni,|e bei ru- bi- ni,|Tien la mia|
 B6 G2 c2 c2 B4 | G2 G4 F2 G4 E4 | F2 F2 G4 E4 B3 A | G2 G2 A3 G F4 E4 | z2 E2 E2 E2 E4 E4 | %11
w: Don- na un si leg- gia-|dro fio- * re, Tien|la mia Don- na un si leg-|gia- dro fio- * * re,|leg- gia- dro fio- re,|
 z4 E4 F8 | z4 G4 G4 F2 G2- | GA B4 =A2 B2 B4 c2 | B4 A2 G2 GF F2 G2 B2 | B3 B B2 B2 c4 B2 G2 | %16
w: Per- che,|Per- che non son'|_ io a- mo- * re, A- pe|va- ga e gen- ti- * * le, Ch'al|piu fio- ri- to A- pri- le, Ch'al|
 A3 A G2 G2 A4 G4 | F4 G2 G2 =A4 B4 | G2 A2 GF E3 D/C/ D2 E2 B2 | B3 B c2 B2 A4 G4 | z16 | %21
w: piu fio- ri- to A- pri- le,|Sug- ge da fio- ri il|piu so- a- ve hu- mo- * * * re, il|piu so- a- ve hu- mo- re,||
 z2 B4 A2 G3 G F2 E2 | EF G4 E2 B4 z4 | z2 B,4 C2 D3 D E2 D2 | CD E4 F2 G2 G4 A2 | B4 c2 c2 B6 A2 | %26
w: Che fin- gen- do di gi-|re su'l fior, su'l fior,|Che fin- gen- do di gi-|re su'l fior, An- drei su quei|la- bri di- vi- *|
 G8 F4 z4 | z8 z4 G4 | c3 c B2 G2 A4 G4 | z4 B4 G3 F E4 | A4 G3 F E2 E2 D4 | E6 G2 A4 G4 | %32
w: * ni,|E|tan- to sug- ge- re- i|Fin che per for-|za gli fa- ces- si a- pri-|re, Che so ch'in-|
 G2 A2 F4 G4 c2 B2 | G4 B6 B2 B4 | c4 c4 c8- | c4 !fermata!=B4 z8 | (3G2 A2 B2 (3c2 B2 G2 G8 | %37
w: di trar- re- i Un li-|quor, Un li- quor|si so- a-|* ve,|Che l'At- ti- co el Hi- bleo si-|
 C3 D E6 DC D4 | G16 |] %39
w: mil non ha- * * *|ve.|
V:2
 z16 |[K:Eb][K:treble] z16 | B,4 E4 C4 E3 D | C4 B,2 B2 B3 A G4 | F2 D2 D2 D2 E4 A,3 B, | %5
w: ||Hor che fra bian- che|per- le e bei ru- bi-|ni, e bei ru- bi- ni, _|
 C3 D E4 z4 E4 | F2 F2 G4 A4 G2 G2 | BAGF E2 C2 D4 E2 C2 | C3 D E2 B,2 C4 B,4 | z4 E4 D2 D2 C4- | %10
w: _ _ _ Tien|la mia Don- na un si leg-|gia- * * * * dro fio- re, un|si leg- gia- dro fio- re,|Tien la mia Don-|
 C4 C4 B,6 B,2 | C3 D E6 DC D4 | E2 B,2 E6 E2 CDEF | G2 F2 F4 F2 G4 A2 | G3 G F2 E3 D C2 D2 E2 | %15
w: * na un si leg-|gia- dro fio- * * *|re, Per- che non son' _ _ _|_ io a- mo- re, A- pe|va- ga e gen- ti- * * le, Ch'al|
 D3 F E2 D2 C4 D2 C2 | C3 D E2 E2 F4 B,4 | z2 D2 E2 G2 F4 F4 | E2 E2 E2 B,2 B,4 B,2 E2 | %19
w: piu fio- ri- to A- pri- le, Ch'al|piu fio- ri- to A- pri- le,|Sug- ge da fio- ri il|piu so- a- ve hu- mo- re, il|
 D3 D CD E3 D/C/ D2 E4 | z8 E4 D2 C2- | CC B,2 C2 CD E4 z4 | z2 B4 A4 G4 G2 | %23
w: piu so- a- ve hu- mo- * * * re,|Che fin- gen-|* do di gi- re su'l fior,|Che fin- gen- do|
 F2 E2 ED C2 z2 F2 G4 | A2 G4 F2 E2 D2 E4 | D2 G4 F2 G3 FED C2 | B,2 B,4 E4 D2 E4 | z8 z4 C4 | %28
w: di gi- re su'l fior, An- drei|su quei la- bri di- vi-|ni, su quei la- * * * *|bri di- vi- * ni,|E|
 C3 D E2 E2 F4 E4 | G4 F2 F2 E3 F G2 G2 | F4 B2 B4 =A2 B4 | z2 G4 E4 F2 E2 D2 | %32
w: tan- to sug- ge- re- i|Fin che per for- za gli fa-|ces- si a- pri- * re,|Che so ch'in- di trar-|
 EDCB, C2 C2 E4 F2 G2- | G2 G4 F2 G4 G2 G2- | G2 G2 A4 G2 C2 CB,CD | E4 D4 z8 | %36
w: re- * * * * i Un li- quor|_ si so- a- ve, Un|_ li- quor si so- a- * * *|* ve,|
 (3E2 C2 B,2 (3A,2 B,2 C2 z4 E4- | E2 E2 E4 F8 | E16 |] %39
w: Che l'At- ti- co el Hi- bleo si-|* mil non ha-|ve.|
V:3
 z16 |[K:Eb][K:treble-8] E8 B6 B2 | G2 G2 c3 B ABcA B4 | A4 z2 B2 e3 e d3 e | f4 B4 z2 c2 c3 B | %5
w: |Hor che fra|bian- che per- * * * * * *|le, Hor che fra bian- che|per- le e bei ru-|
 A4 G4 B4 c2 c2 | d4 B4 f3 e d2 d2 | e3 d c4 B4 z2 A2 | F4 E4 A4 G4 | B2 B2 c4 F2 BA GFGF | %10
w: bi- ni, Tien la mia|Don- na un si leg- gia- dro|fio- * * re, Tien|la mia Don- na un|si leg- gia- dro fio- * * * * *|
 EFGE A6 GF G4 | A8 z4 B4 | G4 B4 c4 A2 B2- | B2 d2 c4 d2 e4 e2 | e4 c2 B2 c4 =B2 g2 | %15
w: |re, Per-|che, Per- che non son'|_ io a- mo- re, A- pe|va- ga e gen- ti- le, Ch'al|
 f3 d g2 g2 e2 f2 g2 =e2 | f3 f B2 c2 c3 d e4 | d2 B3 B e2 c4 _d4 | c2 c2 B2 G2 F4 G4 | z8 z4 B4 | %20
w: piu fio- ri- to A- pri- * le, Ch'al|piu fio- ri- to A- pri- * *|le, Sug- ge da fio- ri il|piu so- a- ve hu- mo- re,|Che|
 A2 G3 G F2 E2 EF G4 | z8 z4 A4- | A2 B2 c3 c d2 e2 ed c2 | z8 z4 B4 | e3 dcB c4 B2 cdec | %25
w: fin- gen- do di gi- re su'l fior,|Che|_ fin- gen- do di gi- re su'l fior,|An-|drei, _ _ _ _ An- drei _ _ _|
 f2 e4 c2 d2 e2 g2 fe | dc d2 e4 z4 z2 c2 | c3 d e2 e2 f4 e4 | z8 c8 | B3 c d4 e2 c4 B2 | %30
w: _ su quei la- bri di- vi- *|* * * ni, E|tan- to sug- ge- re- i|Fin|che per for- za gli fa-|
 ABcd e2 B2 c4 B2 B2 | B4 c3 c c2 c4 B2 | z2 A4 A2 B4 c2 d2 | e4 d4 z2 d4 d2 | e4 e2 f2 ef g4 f2 | %35
w: ces- * * * * si a- pri- re, Che|so ch'in- di trar- re- i|Un li- quor si so-|a- ve, Un li-|quor si so- a- * * *|
 g8 (3d2 e2 f2 (3g2 f2 d2 | z8 B8 | A4 G4 B8 | B16 |] %39
w: ve, Che l'At- ti- co el Hi- bleo|si-|mil non ha-|ve.|
V:4
 z16 |[K:Eb][K:bass] z8 z4 B,,4 | E,3 E, C,2 C,2 F,4 E,4 | z4 E,8 B,4- | B,2 B,2 G,2 G,2 C4 F,4 | %5
w: |Hor|che fra bian- che per- le,|Hor che|_ fra bian- che per- le|
 z4 E,4 E,3 D, C,4 | B,,4 E,4 F,2 F,2 G,4 | E,4 A,4 G,4 C3 B, | A,4 G,4 z4 E,4- | %9
w: e bei ru- bi-|ni, Tien la mia Don-|na un si leg- gia- dro|fio- re, un|
 E,4 A,,4 B,,4 C,4- | C,4 A,,4 E,8 | A,,8 z8 | z4 E,4 C,4 F,2 E,2- | E,2 B,,2 F,4 B,,2 E,4 C,2 | %14
w: _ si leg- gia-|* dro fio-|re,|Per- che non son'|_ io a- mo- re, A- pe|
 E,4 F,2 G,2 A,4 G,2 E,2 | B,3 B, G,2 G,2 A,4 G,2 C,2 | F,3 F, E,2 C,2 F,4 E,4 | %17
w: va- ga e gen- ti- le, Ch'al|piu fio- ri- to A- pri- le, Ch'al|piu fio- ri- to A- pri- le,|
 B,,4 E,2 C,2 F,4 B,,4 | C,3 D, E,2 E,2 B,,4 E,2 E,2 | G,3 B, A,2 G,2 F,4 E,4 | %20
w: Sug- ge da fio- ri il|piu so- a- ve hu- mo- re, il|piu so- a- ve hu- mo- re,|
 z2 E,4 D,2 C,3 C, B,,2 C,2 | C,D, E,4 F,2 E,4 z4 | z8 z4 E,4 | F,2 G,3 G, A,2 B,2 B,A, G,4 | %24
w: Che fin- gen- do di gi-|re su'l fior, An- drei,|Che|fin- gen- do di gi- re su'l fior,|
 z2 E,2 A,4 G,2 G,2 C4 | B,2 G,2 A,4 G,2 E,4 F,2 | G,4 E,2 E,2 B,4 E,2 C,2 | %27
w: An- drei su quei la-|bri di- vi- ni, su quei|la- bri di- vi- ni, E|
 F,3 F, E,2 C,2 _D,4 C,4 | z8 A,,4 C,3 D, | E,4 B,,4 C,3 D, E,2 E,2 | F,4 E,4 z4 B,,4 | %31
w: tan- to sug- ge- re- i|Fin che per|for- za gli fa- ces- si a-|pri- re, Che|
 E,4 C,4 A,2 F,2 G,4 | C,2 F,4 F,2 E,4 A,2 G,2 | C4 B,4 z2 G,4 G,2 | C4 A,2 F,2 C3 B, A,4 | %35
w: so ch'in- di trar- re-|i Un li- quor si so-|a- ve, Un li-|quor si so- a- * *|
 G,8 (3B,2 G,2 F,2 (3E,2 F,2 G,2 | z8 E,8 | A,,4 C,4 B,,8 | E,16 |] %39
w: ve, Che l'At- ti- co el Hi- bleo|si-|mil non ha-|ve.|

